care/src/image/Frame2.svg

<svg width="67" height="85" viewBox="0 0 67 85" fill="none" xmlns="http://www.w3.org/2000/svg">
<g clip-path="url(#clip0_1_188)">
<path d="M66.2757 26.4806L66.0704 66.2815L66.0362 73.9797C66.002 80.0968 59.7731 85.0319 52.1068 85L13.8096 84.8403C6.16043 84.7924 -0.0342054 79.8093 1.90639e-05 73.6762L0.239591 26.1772C0.256703 21.226 4.36364 17.0415 9.97646 15.652L9.99357 13.0966V11.7869L56.6587 11.9946L56.6416 15.8596C62.2373 17.313 66.2929 21.5135 66.2757 26.4806Z" fill="url(#paint0_linear_1_188)"/>
<path d="M60.1325 1.77283V2.1242L60.0982 6.27678L60.064 10.3495V10.8446C60.064 11.6112 59.3795 12.2341 58.5581 12.2341H58.1988L55.94 12.2182L53.4587 12.2022L51.1999 12.1862L48.7186 12.1702L46.4256 12.1383L43.9443 12.1223L41.6855 12.1064L39.1871 12.0904L36.9111 12.0744L34.4299 12.0584L32.171 12.0265L29.6898 12.0105L27.4309 11.9945L24.9326 11.9786L22.6566 11.9626L20.1925 11.9466L17.9336 11.9307L15.4524 11.9147L13.1764 11.8987L10.6952 11.8828L8.41923 11.8668H8.05987C7.23848 11.8668 6.57111 11.2279 6.57111 10.4613V10.4453V10.0939L6.63955 1.88463V1.38952C6.63955 0.622886 7.32405 0 8.16255 0H8.5219L13.2791 0.0319429L18.0363 0.0638858L20.3122 0.0798572L22.7935 0.0958286L25.0523 0.1118L29.7924 0.159714L32.2737 0.175686L34.5325 0.191657L37.0138 0.207629L39.2726 0.2236L41.7539 0.239572L44.0127 0.255543L46.494 0.271514L48.7528 0.287486L51.2683 0.319429L53.5271 0.3354L56.0084 0.351372L58.2843 0.367343H58.6437C59.4822 0.383315 60.1325 1.0062 60.1325 1.77283Z" fill="url(#paint1_linear_1_188)"/>
<path d="M60.1325 2.14019L60.0982 6.27679L60.064 10.3495L58.0277 10.3335L55.3239 10.3176L52.8426 10.3016H50.1218L47.6405 10.2856L44.9368 10.2697L42.4555 10.2537H39.7347L37.2534 10.2377L34.5325 10.2217L32.0684 10.2058H29.3475L26.8662 10.1898L24.1454 10.1738L21.6641 10.1579H18.9604L16.4791 10.1419L13.7583 10.1259L11.277 10.1099H8.57324L6.57111 10.094L6.63955 1.88464L11.3968 1.90061L16.5818 1.93256L19.0631 1.94853L21.7839 1.9645H24.2652L29.4502 1.99644L32.171 2.01242H34.6523L37.3732 2.02839L39.8373 2.04436L42.5582 2.06033H45.0395L47.7603 2.0763L50.2245 2.09227L52.9453 2.10824H55.4266L58.1474 2.12422L60.1325 2.14019Z" fill="url(#paint2_linear_1_188)"/>
<path d="M66.2256 34.8841L0.189392 34.5927L0.0509266 61.9198L66.0871 62.2112L66.2256 34.8841Z" fill="#F7F9FC"/>
<path d="M66.2373 34.884L0.201111 34.5927L0.176194 39.5119L66.2124 39.8032L66.2373 34.884Z" fill="#FBFCF7"/>
<path d="M25.9422 45.5803L21.6812 45.5644L21.6983 41.5715L15.8288 41.5555L15.8117 45.5324L11.5508 45.5165L11.5165 50.9787L15.7775 50.9947L15.7604 54.9875L21.6299 55.0035L21.647 51.0266L25.9079 51.0426L25.9422 45.5803Z" fill="url(#paint3_linear_1_188)"/>
<path d="M54.8961 46.906L33.7796 46.8102C33.2149 46.8102 32.7529 46.379 32.7529 45.8519V45.4047C32.7529 44.8776 33.2149 44.4464 33.7796 44.4464L54.8961 44.5422C55.4608 44.5422 55.9229 44.9735 55.9229 45.5005V45.9477C55.9229 46.4748 55.4608 46.906 54.8961 46.906Z" fill="url(#paint4_linear_1_188)"/>
<path opacity="0.5" d="M54.879 52.7675L33.7625 52.6717C33.1978 52.6717 32.7358 52.2405 32.7358 51.7134V51.2662C32.7358 50.7392 33.1978 50.3079 33.7625 50.3079L54.879 50.4038C55.4437 50.4038 55.9058 50.835 55.9058 51.362V51.8092C55.9058 52.3363 55.4437 52.7675 54.879 52.7675Z" fill="url(#paint5_linear_1_188)"/>
<path opacity="0.08" d="M6.57111 1.77286V2.12423L6.60533 6.2768L6.63955 10.3335V10.8287C6.63955 11.5953 7.32404 12.2182 8.14543 12.2182H8.50479L10.7807 12.2022L13.262 12.1862L15.5208 12.1703L18.0021 12.1543L20.2609 12.1383L22.7422 12.1223L25.001 12.1064L27.4823 12.0904L29.7582 12.0744L32.2395 12.0585L34.4983 12.0425L36.9796 12.0265L39.2384 12.0105L41.7197 11.9946L43.9956 11.9786L46.4769 11.9626L48.7357 11.9467L51.217 11.9307L53.4758 11.9147L55.9571 11.8987L58.233 11.8828H58.5924C59.4138 11.8828 60.0811 11.2439 60.0811 10.4773V10.4613V10.1099C33.6085 11.18 8.05987 0.367371 8.05987 0.367371C7.23848 0.383342 6.57111 1.00623 6.57111 1.77286Z" fill="#1A6FB5"/>
</g>
<defs>
<linearGradient id="paint0_linear_1_188" x1="1.87137e-05" y1="11.3333" x2="55.8058" y2="93.856" gradientUnits="userSpaceOnUse">
<stop stop-color="#6CBCFC"/>
<stop offset="1" stop-color="#458DFC"/>
</linearGradient>
<linearGradient id="paint1_linear_1_188" x1="-674.925" y1="-39.931" x2="-30.0365" y2="8.19503" gradientUnits="userSpaceOnUse">
<stop stop-color="#B0F4FF"/>
<stop offset="0.0525488" stop-color="#A9F2FF"/>
<stop offset="0.2879" stop-color="#8DE8FE"/>
<stop offset="0.5247" stop-color="#79E1FD"/>
<stop offset="0.7618" stop-color="#6DDDFC"/>
<stop offset="1" stop-color="#69DCFC"/>
</linearGradient>
<linearGradient id="paint2_linear_1_188" x1="6.5785" y1="6.11313" x2="60.1347" y2="6.11313" gradientUnits="userSpaceOnUse">
<stop stop-color="#B0F4FF"/>
<stop offset="0.0525488" stop-color="#A9F2FF"/>
<stop offset="0.2879" stop-color="#8DE8FE"/>
<stop offset="0.5247" stop-color="#79E1FD"/>
<stop offset="0.7618" stop-color="#6DDDFC"/>
<stop offset="1" stop-color="#69DCFC"/>
</linearGradient>
<linearGradient id="paint3_linear_1_188" x1="23.5478" y1="43.0953" x2="14.28" y2="54.5459" gradientUnits="userSpaceOnUse">
<stop stop-color="#6CBCFC"/>
<stop offset="1" stop-color="#458DFC"/>
</linearGradient>
<linearGradient id="paint4_linear_1_188" x1="56.1265" y1="45.671" x2="30.95" y2="45.671" gradientUnits="userSpaceOnUse">
<stop stop-color="#6CBCFC"/>
<stop offset="1" stop-color="#458DFC"/>
</linearGradient>
<linearGradient id="paint5_linear_1_188" x1="32.7342" y1="51.5322" x2="55.9061" y2="51.5322" gradientUnits="userSpaceOnUse">
<stop stop-color="#6888C8"/>
<stop offset="1" stop-color="#458DFC"/>
</linearGradient>
<clipPath id="clip0_1_188">
<rect width="66.2758" height="85" fill="white"/>
</clipPath>
</defs>
</svg>

<svg width="67" height="85" fill="none" xmlns="http://www.w3.org/2000/svg"><g clip-path="url(#a)"><path d="m66.276 26.48-.206 39.801-.034 7.699c-.034 6.117-6.263 11.052-13.93 11.02l-38.296-.16C6.16 84.792-.034 79.81 0 73.676l.24-47.499c.017-4.951 4.124-9.136 9.736-10.525l.018-2.555v-1.31l46.665.208-.017 3.865c5.595 1.453 9.65 5.654 9.634 10.62z" fill="url(#b)"/><path d="M60.133 1.773v.351l-.035 4.153-.034 4.073v.495c0 .766-.684 1.39-1.506 1.39h-.36l-2.258-.017-2.481-.016-2.26-.016-2.48-.016-2.293-.032-2.482-.016-2.259-.016-2.498-.016-2.276-.016-2.481-.016-2.259-.031-2.481-.016-2.26-.016-2.497-.016-2.276-.016-2.465-.016-2.258-.016-2.482-.016-2.276-.016-2.48-.016-2.277-.016h-.36c-.82 0-1.488-.64-1.488-1.406v-.367l.069-8.21V1.39C6.64.623 7.324 0 8.163 0h.359l4.757.032 4.757.032 2.276.016 2.482.016 2.258.016 4.74.048 2.482.016 2.258.016 2.482.016 2.259.016 2.48.016 2.26.016 2.481.016 2.259.015 2.515.032 2.26.016 2.48.016 2.276.016h.36c.838.016 1.489.64 1.489 1.406z" fill="url(#c)"/><path d="m60.133 2.14-.035 4.137-.034 4.073-2.036-.016-2.704-.016-2.481-.016h-2.721l-2.481-.016-2.704-.016-2.481-.016h-2.721l-2.482-.016-2.72-.016-2.465-.016h-2.72l-2.482-.016-2.72-.016-2.482-.016H18.96l-2.48-.016-2.722-.016-2.481-.016H8.573l-2.002-.016.069-8.21 4.757.017 5.185.032 2.481.016 2.72.015h2.482l5.185.032 2.721.016h2.481l2.721.016 2.464.016 2.721.016h2.481l2.721.016 2.465.016 2.72.016h2.482l2.72.016 1.986.016z" fill="url(#d)"/><path d="M66.226 34.884.189 34.593.051 61.92l66.036.291.139-27.327z" fill="#F7F9FC"/><path d="M66.237 34.884.201 34.593l-.025 4.919 66.036.291.025-4.919z" fill="#FBFCF7"/><path d="m25.942 45.58-4.26-.016.016-3.992-5.87-.017-.016 3.977-4.261-.015-.034 5.462 4.26.016-.017 3.992 5.87.017.017-3.977 4.26.016.035-5.463z" fill="url(#e)"/><path d="M54.896 46.906 33.78 46.81c-.565 0-1.027-.431-1.027-.958v-.447c0-.527.462-.959 1.027-.959l21.116.096c.565 0 1.027.431 1.027.959v.447c0 .527-.462.958-1.027.958z" fill="url(#f)"/><path opacity=".5" d="m54.879 52.767-21.116-.095c-.565 0-1.027-.431-1.027-.959v-.447c0-.527.462-.958 1.027-.958l21.116.096c.565 0 1.027.431 1.027.958v.447c0 .527-.462.959-1.027.959z" fill="url(#g)"/><path opacity=".08" d="M6.571 1.773v.351l.034 4.153.035 4.057v.495c0 .766.684 1.39 1.505 1.39h.36l2.276-.017 2.481-.016 2.259-.016 2.481-.016 2.259-.016 2.481-.016 2.259-.016 2.481-.016 2.276-.016 2.482-.015 2.258-.016 2.482-.016 2.258-.016 2.482-.016 2.276-.016 2.48-.016 2.26-.016 2.481-.016 2.259-.016 2.481-.016 2.276-.016h.36c.82 0 1.488-.64 1.488-1.406v-.367C33.608 11.18 8.06.367 8.06.367c-.822.016-1.489.64-1.489 1.406z" fill="#1A6FB5"/></g><defs><linearGradient id="b" x1="0" y1="11.333" x2="55.806" y2="93.856" gradientUnits="userSpaceOnUse"><stop stop-color="#6CBCFC"/><stop offset="1" stop-color="#458DFC"/></linearGradient><linearGradient id="c" x1="-674.925" y1="-39.931" x2="-30.037" y2="8.195" gradientUnits="userSpaceOnUse"><stop stop-color="#B0F4FF"/><stop offset=".053" stop-color="#A9F2FF"/><stop offset=".288" stop-color="#8DE8FE"/><stop offset=".525" stop-color="#79E1FD"/><stop offset=".762" stop-color="#6DDDFC"/><stop offset="1" stop-color="#69DCFC"/></linearGradient><linearGradient id="d" x1="6.579" y1="6.113" x2="60.135" y2="6.113" gradientUnits="userSpaceOnUse"><stop stop-color="#B0F4FF"/><stop offset=".053" stop-color="#A9F2FF"/><stop offset=".288" stop-color="#8DE8FE"/><stop offset=".525" stop-color="#79E1FD"/><stop offset=".762" stop-color="#6DDDFC"/><stop offset="1" stop-color="#69DCFC"/></linearGradient><linearGradient id="e" x1="23.548" y1="43.095" x2="14.28" y2="54.546" gradientUnits="userSpaceOnUse"><stop stop-color="#6CBCFC"/><stop offset="1" stop-color="#458DFC"/></linearGradient><linearGradient id="f" x1="56.127" y1="45.671" x2="30.95" y2="45.671" gradientUnits="userSpaceOnUse"><stop stop-color="#6CBCFC"/><stop offset="1" stop-color="#458DFC"/></linearGradient><linearGradient id="g" x1="32.734" y1="51.532" x2="55.906" y2="51.532" gradientUnits="userSpaceOnUse"><stop stop-color="#6888C8"/><stop offset="1" stop-color="#458DFC"/></linearGradient><clipPath id="a"><path fill="#fff" d="M0 0h66.276v85H0z"/></clipPath></defs></svg>
